!!!COM: Mozart, Wolfgang Amadeus
!!!OTL: String Quartet No. 22 in B-flat Major
!!!OMD: Menuetto: Moderato
!!!OMV: 3
!!!SCT1: K<sup>1</sup> 589
!!!SCA: Chronologisch-thematisches Verzeichnis s�mtlicher Tonwerke Wolfgang Amade Mozarts (L. von K�chel; 1862, 2/1905, 3/1937, 1947)
!!!SCT1: K<sup>1</sup> 589
!!!YOR: Breitkopf & H�rtel Edition
!!!ENC: Frances Bennion
!!!CDT: 1756/1/27/-1791/12/5/
!!!OCY: �sterreich
!!!YEC: Copyright (c) 1994, 2000 Center for Computer Assisted Research in the Humanities
!!!YEM: Rights to all derivative editions reserved.
!!!YEM: Refer to licensing agreement for further details.
!!!YEN: United States of America
**harm	**chord	**kern	**kern	**kern	**kern
*k[b-e-]	*k[b-e-]	*k[b-e-]	*k[b-e-]	*k[b-e-]	*k[b-e-]
*B-:	*B-:	*B-:	*B-:	*B-:	*B-:
*	*	*clefC	*clefF	*clefG	*clefG
*M3/4	*M3/4	*M3/4	*M3/4	*M3/4	*M3/4
I	Bb	4BB-	4b-	4dd	4.ff 4.b- 4.d
.	.	4B-	2r	2r	.
.	.	.	.	.	16ccc
.	.	.	.	.	16bb-
.	.	4r	.	.	16aa
.	.	.	.	.	16gg
.	.	.	.	.	16ff
.	.	.	.	.	16ee-
=2	=2	=2	=2	=2	=2
V7b/vi	D7/F#	4r	4r	4r	8.ee-
.	.	.	.	.	16dd
.	.	4f#	4a	4cc	4dd
.	.	4f#	4a	4cc	4dd
=3	=3	=3	=3	=3	=3
vi	G	2g	2b-	4b-	4dd
ii7c	Cm7/G	.	.	4cc	8.ee-
.	.	.	.	.	16cc
viio/IV	Ddim	4f	4a-	4dd	8.ff
.	.	.	.	.	16dd
=4	=4	=4	=4	=4	=4
IV	Eb	4e-	4b- 4g	4ee-	4gg
.	.	2r	2r	2r	2r
=5	=5	=5	=5	=5	=5
iib	Cm/Eb	4EE-	4e-	4g	4.cc 4.e- 4.G
.	.	4E-	2r	2r	.
.	.	.	.	.	16aa
.	.	.	.	.	16gg
.	.	4r	.	.	16ff
.	.	.	.	.	16ee-
.	.	.	.	.	16dd
.	.	.	.	.	16cc
=6	=6	=6	=6	=6	=6
viio7/vi	F#dim7	4r	4r	4r	8.b-
.	.	.	.	.	16a
.	.	4F#	4c	4e-	4a
vi	Gm	4G	4B-	4d	4b-
=	=	=7	=7	=7	=7
iib	Cm7/Eb	4E-	4g	2b-	4.cc
I64	Bb64	4F	4f	.	.
.	.	.	.	.	16dd
.	.	.	.	.	16ee-
V7	F7	4FF	8.e-	4a	16ff
.	.	.	.	.	16dd
.	.	.	.	.	16ee-
.	.	.	32d	.	16cc
.	.	.	32e-	.	.
=8	=8	=8	=8	=8	=8
I	Bb	4BB-	4d	4b-	4b-
.	.	4F	2r	2r	2r
.	.	4B-	.	.	.
=9	=9	=9	=9	=9	=9
V7	F7	2.r	2c	8e-	4.aa
.	.	.	.	8f	.
.	.	.	.	8e-	.
.	.	.	.	8f	16bb-
.	.	.	.	.	16aa
I	Bb	.	4B-	8d	16ccc
.	.	.	.	.	16bb-
.	.	.	.	8f	16aa
.	.	.	.	.	16gg
=10	=10	=10	=10	=10	=10
V7	F7	16r	2A	8c	4ff
.	.	16FF	.	.	.
.	.	16AA	.	8f	.
.	.	16C	.	.	.
.	.	16F	.	8c	8.ee-
.	.	16A	.	.	.
.	.	16c	.	8f	.
.	.	16f	.	.	32dd
.	.	.	.	.	32ee-
I	Bb	4B-	4B-	8d	4dd
.	.	.	.	8f	.
=11	=11	=11	=11	=11	=11
V7	F7	2.r	8c	8e-	[4aa
.	.	.	8F	8f	.
.	.	.	8c	8e-	16aa]
.	.	.	.	.	16eee-
.	.	.	8F	8f	16ccc
.	.	.	.	.	16aa
I	Bb	.	8B-	8d	16ccc
.	.	.	.	.	16bb-
.	.	.	8F	8f	16aa
.	.	.	.	.	16gg
=12	=12	=12	=12	=12	=12
V7	F7	16r	8A	8c	4ff
.	.	16FF	.	.	.
.	.	16AA	8F	8f	.
.	.	16C	.	.	.
.	.	16F	8A	8c	8.ee-
.	.	16A	.	.	.
.	.	16c	8F	8f	.
.	.	16f	.	.	32dd
.	.	.	.	.	32ee-
I	Bb	4B-	4B-	8d	4dd
.	.	.	.	8f	.
=13	=13	=13	=13	=13	=13
IV	Eb	2.r	16r	8ee-	8gg
.	.	.	16E-	.	.
.	.	.	16G	8ee-	8gg
.	.	.	16B-	.	.
.	.	.	16e-	8r	8r
.	.	.	16g	.	.
.	.	.	16b-	8ee-	8gg
.	.	.	16ee-	.	.
I	Bb	.	4b-	8dd	8ff
.	.	.	.	8dd	8ff
=14	=14	=14	=14	=14	=14
ii	Cm	2.r	16r	8cc	8ee-
.	.	.	16C	.	.
.	.	.	16E-	8cc	8ee-
.	.	.	16G	.	.
.	.	.	16c	8r	8r
.	.	.	16e-	.	.
.	.	.	16g	8cc	8ee-
.	.	.	16cc	.	.
V/ii	G	.	4g	8b-	8dd
.	.	.	.	8b-	8dd
=15	=15	=15	=15	=15	=15
iib	Cm/Eb	[2E-	[2.c	2.g	16cc
.	.	.	.	.	16g
.	.	.	.	.	16ee-
.	.	.	.	.	16cc
.	.	.	.	.	16gg
.	.	.	.	.	16ee-
.	.	.	.	.	16ccc
.	.	.	.	.	16gg
.	.	8E-]	.	.	16eee-
.	.	.	.	.	16ddd
V7b/V	C7/E	8E	.	.	16ccc
.	.	.	.	.	16bb-
=16	=16	=16	=16	=16	=16
V	F	4.F	8c]	4.a	16aa
.	.	.	.	.	16ccc
.	.	.	4f	.	16bb-
.	.	.	.	.	16ccc
.	.	.	.	.	16aa
.	.	.	.	.	16ccc
.	.	8G	4f	8b-	16gg
.	.	.	.	.	16ccc
.	.	8.A	.	8.cc	16ff
.	.	.	.	.	16ccc
V7	F7	.	[8f	.	16ee-
.	.	32G	.	32b-	16ccc
VII	A	32A	.	32cc	.
=17	=17	=17	=17	=17	=17
I	Bb	8B-	8f]	16dd	16dd
.	.	.	.	16ff	16ff
.	.	8F	8f	16gg	16gg
.	.	.	.	16ff	16ff
.	.	8E-	8e-	16ee-	16ee-
.	.	.	.	16ff	16ff
.	.	8D	8d	16dd	16dd
.	.	.	.	16ff	16ff
.	.	8C	8c	16cc	16cc
.	.	.	.	16ff	16ff
.	.	8BB-	8B-	16b-	16b-
.	.	.	.	16ff	16ff
=18	=18	=18	=18	=18	=18
V7	F7	4FF	4F	4f	8f
.	.	.	.	.	8a
.	.	2r	2r	2r	8b-
.	.	.	.	.	8cc
.	.	.	.	.	8dd
.	.	.	.	.	8ee-
=19	=19	=19	=19	=19	=19
I	Bb	4BB-	4b-	4dd	4.ff 4.b- 4.d
.	.	4B-	2r	2r	.
.	.	.	.	.	16ccc
.	.	.	.	.	16bb-
.	.	4r	.	.	16aa
.	.	.	.	.	16gg
.	.	.	.	.	16ff
.	.	.	.	.	16ee-
=	=20	=20	=20	=20	=20
V7b/vi	D7/F#	4r	4r	4r	8.ee-
.	.	.	.	.	16dd
.	.	4f#	4a	4cc	4dd
.	.	4f#	4a	4cc	4dd
=21	=21	=21	=21	=21	=21
V7b/vi	D7/F#	4f#	4a	2cc	4dd
ii7c	Cm7/G	4g	4b-	.	16ee-
.	.	.	.	.	16dd
.	.	.	.	.	16ee-
.	.	.	.	.	16cc
Ic	Bb7/F	4f	4b- 4a-	4dd	16ff
.	.	.	.	.	16ee-
.	.	.	.	.	16ff
.	.	.	.	.	16dd
=22	=22	=22	=22	=22	=22
IV	Eb	4e-	4b- 4g	4ee-	4gg
.	.	2r	16e-	2r	2r
.	.	.	16d	.	.
.	.	.	16e-	.	.
.	.	.	16c	.	.
.	.	.	16f	.	.
.	.	.	16e-	.	.
.	.	.	16f	.	.
.	.	.	16d	.	.
=	=23	=23	=23	=23	=23
ii7b	Cm/Eb	4EE-	4g	4e- 4c	4.cc 4.e- 4.G
.	.	4E-	2r	2r	.
.	.	.	.	.	16aa
.	.	.	.	.	16gg
.	.	4r	.	.	16ff
.	.	.	.	.	16ee-
.	.	.	.	.	16dd
.	.	.	.	.	16cc
=24	=24	=24	=24	=24	=24
V7b	F7/A	8r	8r	8r	8b-
.	.	8F	8c	8e-	8a
.	.	8AA	8f	8ee-	8r
.	.	4.r	4.r	4.r	16ddd
.	.	.	.	.	16ccc
.	.	.	.	.	16bb-
.	.	.	.	.	16aa
.	.	.	.	.	16gg
.	.	.	.	.	16ff
=25	=25	=25	=25	=25	=25
Ib	Bb7/D	8r	8r	8r	8ee-
.	.	8B-	8f	8a-	8dd
.	.	8D	8a-	8ff	8r
.	.	4.r	4.r	4.r	16gg
.	.	.	.	.	16ff
.	.	.	.	.	16ee-
.	.	.	.	.	16dd
.	.	.	.	.	16cc
.	.	.	.	.	16b-
=26	=26	=26	=26	=26	=26
IV	Eb	2.EE-	8r	4.r	8a-
.	.	.	8B-	.	8g
.	.	.	8B	.	16r
.	.	.	.	.	16ff#
ii7b	Cm/Eb	.	8c	8e-	16aa
.	.	.	.	.	16gg
.	.	.	8d	8f	16ff
.	.	.	.	.	16ee-
.	.	.	8e-	8g	16dd
.	.	.	.	.	16cc
=27	=27	=27	=27	=27	=27
Ic	Bb/F	4FF	8d	4f	2b-
.	.	.	8f	.	.
.	.	4FF	8d	2r	.
.	.	.	8f	.	.
.	.	4FF	8e-	.	8.cc
.	.	.	8f	.	.
.	.	.	.	.	16b-
=28	=28	=28	=28	=28	=28
ii7b	Cm/Eb	4.d	4.f	4.b-	4b-
.	.	.	.	.	2r
.	.	16e-	16g	16cc	.
.	.	16f	16a	16dd	.
.	.	16g	16b-	16ee-	.
.	.	16e-	16g	16cc	.
.	.	16f	16a	16dd	.
.	.	16d	16f	16b-	.
=29	=29	=29	=29	=29	=29
Vc	F7/C	2c	2e-	2a	16gg
.	.	.	.	.	16ff
.	.	.	.	.	16gg
.	.	.	.	.	16ff
.	.	.	.	.	16gg
.	.	.	.	.	16ff
.	.	.	.	.	16gg
.	.	.	.	.	16ff
Ib	Bb/D	4d	4f	4b-	16bb-
.	.	.	.	.	16ff
.	.	.	.	.	16ee-
.	.	.	.	.	16dd
=30	=30	=30	=30	=30	=30
IV	Eb	8E-	8e-	8g	16dd
.	.	.	.	.	16cc
.	.	8r	8r	8r	16ee-
.	.	.	.	.	16gg
Ic	Bb/F	8F	8d	8f	4b-
.	.	8r	8r	8r	.
.	.	8FF	8A	8e-	8.cc
.	.	8r	8r	8r	.
.	.	.	.	.	16b-
=31	=31	=31	=31	=31	=31
Ib	Bb/D	4.d	4.f	4.b-	4b-
.	.	.	.	.	2r
.	.	16e-	16g	16cc	.
.	.	16f	16a	16dd	.
.	.	16g	16b-	16ee-	.
.	.	16e-	16g	16cc	.
.	.	16f	16a	16dd	.
.	.	16d	16f	16b-	.
=32	=32	=32	=32	=32	=32
V7c	F7/C	2c	2e-	2a	8ff
.	.	.	.	.	16gg
.	.	.	.	.	16aa
.	.	.	.	.	16bb-
.	.	.	.	.	16ccc
.	.	.	.	.	16ddd
.	.	.	.	.	16eee-
Ib	Bb/D	4d	4f	4b-	16fff
.	.	.	.	.	16ggg
.	.	.	.	.	16aaa
.	.	.	.	.	16bbb-
=33	=33	=33	=33	=33	=33
IV	Eb	4e-	4g	4b-	4ggg
.	.	4E-	2r	2r	16r
.	.	.	.	.	16aaa
.	.	.	.	.	16bbb-
.	.	.	.	.	16fff#
.	.	4r	.	.	16ggg
.	.	.	.	.	16ddd
.	.	.	.	.	16eee-
.	.	.	.	.	16ccc
=34	=34	=34	=34	=34	=34
Ic	Bb/F	8f	2.r	8r	2bb-
.	.	8r	.	8dd	.
.	.	4f	.	8ff	.
.	.	.	.	8b-	.
viio7/vi	F#dim7	4f#	.	8a	8.ccc
.	.	.	.	8ee-	.
.	.	.	.	.	16bb-
=35	=35	=35	=35	=35	=35
vi	Gm	8g	4.r	8dd	8bb-
.	.	8r	.	8r	8r
Ib	Bb/D	8D	.	8b- 8f	8dd
.	.	4.r	16d	4.r	4.r
.	.	.	16e-	.	.
.	.	.	16f	.	.
.	.	.	16g	.	.
.	.	.	16a	.	.
.	.	.	16b-	.	.
=36	=36	=36	=36	=36	=36
ii7b	Cm7/Eb	8E-	4c	8b-	8gg
.	.	8r	.	8r	8r
V7	F7	8F	8r	8e- 8c	8a
.	.	4.r	16f	4.r	4.r
.	.	.	16g	.	.
.	.	.	16f	.	.
.	.	.	16d	.	.
.	.	.	16e-	.	.
.	.	.	16c	.	.
=37	=37	=37	=37	=37	=37
I	Bb	8B-	4B-	8d	8b-
.	.	8r	.	8r	8r
.	.	8BB-	2r	8dd 8f	8bb-
.	.	4.r	.	4.r	4.r
=38	=38	=38	=38	=38	=38
*Eb:	*Eb:	*	*	*	*
I	Eb	2.r	8E-	16G	2r
.	.	.	.	16e-	.
.	.	.	8F	16A-	.
.	.	.	.	16e-	.
.	.	.	8G	16B-	.
.	.	.	.	16e-	.
.	.	.	8F	16A-	.
.	.	.	.	16e-	.
.	.	.	8G	16B-	8.ee-
.	.	.	.	16e-	.
.	.	.	8E-	16G	.
.	.	.	.	16e-	16gg
=39	=39	=39	=39	=39	=39
V7	Bb7	2.r	16D	8f	4bb-
.	.	.	16B-	.	.
I	Eb	.	16E-	8g	.
.	.	.	16B-	.	.
V7	Bb7	.	16F	8a-	4bb-
.	.	.	16B-	.	.
I	Eb	.	16E-	8g	.
.	.	.	16B-	.	.
V7	Bb7	.	16F	8a-	4bb-
.	.	.	16B-	.	.
.	.	.	16D	8f	.
.	.	.	16B-	.	.
=40	=40	=40	=40	=40	=40
I	Eb	2.r	8E-	16G	4ee-
.	.	.	.	16e-	.
.	.	.	8F	16A-	.
.	.	.	.	16e-	.
.	.	.	8G	16B-	4r
.	.	.	.	16e-	.
.	.	.	8F	16A-	.
.	.	.	.	16e-	.
.	.	.	8G	16B-	16ee-
.	.	.	.	16e-	16dd
.	.	.	8E-	16G	16ee-
.	.	.	.	16e-	16gg
=41	=41	=41	=41	=41	=41
I	Eb	2.r	16D	8f	8bb-
.	.	.	16B-	.	.
.	.	.	16E-	8g	8bb-
.	.	.	16B-	.	.
.	.	.	16F	8a-	8bb-
.	.	.	16B-	.	.
.	.	.	16E-	8g	8bb-
.	.	.	16B-	.	.
.	.	.	16F	8a-	8bb-
.	.	.	16B-	.	.
.	.	.	16D	8f	8bb-
.	.	.	16B-	.	.
=42	=42	=42	=42	=42	=42
I	Eb	8E-	16G	4e-	4ee-
.	.	.	16e-	.	.
.	.	8F	16A-	.	.
.	.	.	16e-	.	.
.	.	8G	16B-	4r	2r
.	.	.	16e-	.	.
.	.	8F	16A-	.	.
.	.	.	16e-	.	.
.	.	8G	16B-	8.ee-	.
.	.	.	16e-	.	.
.	.	8E-	16G	.	.
.	.	.	16e-	16ff	.
=41	=43	=43	=43	=43	=43
V7/vi	G7	16GG	8B	4gg	4dd
.	.	16G	.	.	.
.	.	16AA	8c	.	.
.	.	16G	.	.	.
.	.	16BB	8d	4gg	2fff
.	.	16G	.	.	.
.	.	16AA	8c	.	.
.	.	16G	.	.	.
.	.	16BB	8d	4gg	.
.	.	16G	.	.	.
.	.	16GG	8B	.	.
.	.	16G	.	.	.
=44	=44	=44	=44	=44	=44
vi	Cm7	8C	16E-	4cc	8.eee-
.	.	.	16c	.	.
.	.	8D	16F	.	.
.	.	.	16c	.	16ddd
.	.	8E-	16G	4r	8.ccc
.	.	.	16c	.	.
.	.	8D	16F	.	.
.	.	.	16c	.	16bb-
.	.	8E-	16G	8.cc	8.aa
.	.	.	16c	.	.
.	.	8C	16E-	.	.
.	.	.	16c	32dd	16gg
.	.	.	.	32ee-	.
=45	=45	=45	=45	=45	=45
V7/V	F7	16FF	8A	8ff	4ff
.	.	16F	.	.	.
.	.	16GG	8B-	8ff	.
.	.	16F	.	.	.
.	.	16AA	8c	8ff	2eee-
.	.	16F	.	.	.
.	.	16GG	8B-	8ff	.
.	.	16F	.	.	.
.	.	16AA	8c	8ff	.
.	.	16F	.	.	.
.	.	16FF	8A	8ff	.
.	.	16F	.	.	.
=46	=46	=46	=46	=46	=46
V	Bb	8BB-	16D	4b-	8ddd
.	.	.	16B-	.	.
.	.	8C	16E-	.	8ccc
.	.	.	16B-	.	.
.	.	8D	16F	2r	8bb-
.	.	.	16B-	.	.
.	.	8C	16E-	.	8aa
.	.	.	16B-	.	.
.	.	8D	16F	.	8bb-
.	.	.	16B-	.	.
.	.	8BB-	16D	.	8r
.	.	.	16B-	.	.
=47	=47	=47	=47	=47	=47
V7/V	F7	2r	8e-	8g	16cc
.	.	.	.	.	16ccc
.	.	.	8f	8a	16dd
.	.	.	.	.	16ccc
.	.	.	8g	8b-	16ee-
.	.	.	.	.	16ccc
.	.	.	8f	8a	16dd
.	.	.	.	.	16ccc
.	.	8.C	8g	8b-	16ee-
.	.	.	.	.	16ccc
.	.	.	8f	8a	16dd
.	.	16D	.	.	16ccc
=48	=48	=48	=48	=48	=48
vi7b	Cm7/Eb	8E-	8e-	8g	16cc
.	.	.	.	.	16ccc
.	.	8r	8f	8a	16dd
.	.	.	.	.	16ccc
vi7	Cm7	8CC	8g	8b-	16ee-
.	.	.	.	.	16ccc
.	.	8r	8f	8a	16dd
.	.	.	.	.	16ccc
.	.	8.C	8g	8b-	16ee-
.	.	.	.	.	16ccc
.	.	.	8f	8a	16dd
.	.	16D	.	.	16ccc
=49	=49	=49	=49	=49	=49
vi7b	Cm7/Eb	8E-	8e-	8g	16cc
.	.	.	.	.	16ccc
.	.	8r	8f	8a	16dd
.	.	.	.	.	16ccc
vi7	Cm7	8CC	8g	8b-	16ee-
.	.	.	.	.	16ccc
.	.	8r	8f	8a	16dd
.	.	.	.	.	16ccc
.	.	8.C	8g	8b-	16ee-
.	.	.	.	.	16ccc
.	.	.	8f	8a	16dd
.	.	16D	.	.	16ccc
=	=50	=50	=50	=50	=50
vi7b	Cm7/Eb	8E-	8e-	8g	16cc
.	.	.	.	.	16ccc
.	.	8F	8d	8a	16dd
.	.	.	.	.	16ccc
.	.	8G	8c	8b-	16ee-
.	.	.	.	.	16ccc
.	.	8F	8d	8a	16dd
.	.	.	.	.	16ccc
.	.	8G	8c	8b-	16ee-
.	.	.	.	.	16ccc
.	.	8E-	8e-	8g	16cc
.	.	.	.	.	16ccc
=51	=51	=51	=51	=51	=51
Vc	Bb/F	[2.F	[2.d 2.B-	[2.f	8dd
.	.	.	.	.	8fff
.	.	.	.	.	8ddd
.	.	.	.	.	8bb-
.	.	.	.	.	8ff
.	.	.	.	.	8ddd
=52	=52	=52	=52	=52	=52
Vc	Bb/F	2.F]	2.d 2.B-_	2.f_	8bb-
.	.	.	.	.	8ff
.	.	.	.	.	8dd
.	.	.	.	.	8bb-
.	.	.	.	.	8ff
.	.	.	.	.	8dd
=53	=53	=53	=53	=53	=53
Vc	Bb/F	4FF	4d 4B-]	4f]	8b-
.	.	.	.	.	8dd
.	.	2r	2r	2r	8ee-
.	.	.	.	.	8ee
.	.	.	.	.	8ff
.	.	.	.	.	8ee
=54	=54	=54	=54	=54	=54
V7/V	F7	4r	4r	4r	8ee-
.	.	.	.	.	8dd
.	.	8F	4.e-	4.a	4.cc
.	.	8r	.	.	.
.	.	8FF	.	.	.
.	.	8r	16d	16g	16b-
.	.	.	16e-	16a	16cc
=55	=55	=55	=55	=55	=55
V	Bb	8BB-	4d	4b-	4b-
.	.	8r	.	.	.
.	.	8B-	2r	16r	2r
.	.	.	.	16dd	.
.	.	4.r	.	16cc	.
.	.	.	.	16b-	.
.	.	.	.	16a	.
.	.	.	.	16cc	.
.	.	.	.	16b-	.
.	.	.	.	16g	.
=56	=56	=56	=56	=56	=56
V7b/V	F7/A	4A	4c	4f	2.r
.	.	4B-	4d	4f	.
.	.	4c	4e-	4f	.
=57	=57	=57	=57	=57	=57
V	Bb	4B-	4d	4f	8b-
.	.	.	.	.	16cc
.	.	.	.	.	16dd
.	.	2r	2r	2r	16ee-
.	.	.	.	.	16ff
.	.	.	.	.	16gg
.	.	.	.	.	16aa
.	.	.	.	.	16bb-
.	.	.	.	.	16ccc
.	.	.	.	.	16ddd
.	.	.	.	.	16eee-
=58	=58	=58	=58	=58	=58
V7/V	F7	2r	4a	4ff	4fff
.	.	.	4b-	4ee	4ggg
.	.	4F	4cc	4ee-	4aaa
=59	=59	=59	=59	=59	=59
V	Bb	8BB-	4b-	4dd	4bbb-
.	.	8r	.	.	.
.	.	8B-	2r	2r	2r
.	.	4.r	.	.	.
=60	=60	=60	=60	=60	=60
V	Bb	4BB-	4d	4f	2.r
viio7/V	Adim7	2AA	2e-	2g-	.
=61	=61	=61	=61	=61	=61
V	Bb	4BB-	4d	4f	8r
.	.	.	.	.	8eee
.	.	2r	2r	2r	8fff
.	.	.	.	.	8ccc#
.	.	.	.	.	8ddd
.	.	.	.	.	8bb-
=62	=62	=62	=62	=62	=62
V	Bb	4BB-	4d	4f	2.r
viio7/V	Adim7	2AA	2e-	2g-	.
=63	=63	=63	=63	=63	=63
V	Bb	4BB-	4d	4f	8r
.	.	.	.	.	8ccc#
.	.	2r	2r	2r	8ddd
.	.	.	.	.	8aa
.	.	.	.	.	8bb-
.	.	.	.	.	8ff
=64	=64	=64	=64	=64	=64
V	Bb	4BB-	4d	4f	4r
viio7/V	Adim7	2AA-	2e-	2g-	2c
=	=65	=65	=65	=65	=65
V	Bb	4BB-	4d-	4f	4d-
viio7/V	Adim7	2GG-	2e-	2cc	2bb- 2cc 2e-
=	=66	=66	=66	=66	=66
v	Bbm	4FF	4f	4dd-	16aa-
.	.	.	.	.	16gg-
.	.	.	.	.	16ff
.	.	.	.	.	16ee-
.	.	2r	2r	2r	16dd-
.	.	.	.	.	16cc
.	.	.	.	.	16b-
.	.	.	.	.	16a-
.	.	.	.	.	16g-
.	.	.	.	.	16f
.	.	.	.	.	16e-
.	.	.	.	.	16d-
=67	=67	=67	=67	=67	=67
IV79d	Ab79/Gb	4GG-	4E-	4d-	4b-
.	.	4r	4r	4r	4r
.	.	4AA-	4G-	4A-	4c
=68	=68	=68	=68	=68	=68
r	r	2.r	2.r	2.r	2.r
=69	=69	=69	=69	=69	=69
V/vi	G	4d	8G	4b	2.r
.	.	.	8G	.	.
vib	Cm/Eb	2e-	8G	2cc	.
.	.	.	8G	.	.
.	.	.	8G	.	.
.	.	.	8G	.	.
=70	=70	=70	=70	=70	=70
V/vi	G	4d	8G	4b	8r
.	.	.	8G	.	8ccc#
.	.	2r	8G	2r	8ddd
.	.	.	8G	.	8aa#
.	.	.	8G	.	8bb
.	.	.	8G	.	8gg
=71	=71	=71	=71	=71	=71
V/vi7	G7	4d	8G 8F	4b	2.r
.	.	.	8G 8F	.	.
vi	Cm	2e-	8G 8F	2cc	.
.	.	.	8G 8F	.	.
.	.	.	8G 8F	.	.
.	.	.	8G 8F	.	.
=72	=72	=72	=72	=72	=72
V/vi7	G7	4d	8G 8F	4b	8r
.	.	.	8G 8F	.	8ff#
.	.	2r	8G 8F	2r	8gg
.	.	.	8G 8F	.	8cc#
.	.	.	8G 8F	.	8dd
.	.	.	8G 8F	.	8b
=73	=73	=73	=73	=73	=73
V7c	Bb7/F	4d	8A- 8F	4b-	2.r
.	.	.	8A- 8F	.	.
iiom7	Fddim7	2e-	8A- 8F	2cc-	.
.	.	.	8A- 8F	.	.
.	.	.	8A- 8F	.	.
.	.	.	8A- 8F	.	.
=74	=74	=74	=74	=74	=74
V7c	Bb7/F	4d	8A- 8F	8b-	4bb-
.	.	.	8f	8aa-	.
.	.	4r	8f	8aa-	2ccc-
.	.	.	8f	8aa-	.
iiom7d	Fddim7/Eb	4EE-	8f	8aa-	.
.	.	.	8f	8aa-	.
=75	=75	=75	=75	=75	=75
V7b	Bb7/D	8DD	4f	4aa-	4bb-
.	.	8r	.	.	.
.	.	8D	2r	2r	8r
.	.	4.r	.	.	16aa-
.	.	.	.	.	16gg
.	.	.	.	.	16bb-
.	.	.	.	.	16aa-
.	.	.	.	.	16gg
.	.	.	.	.	16ff
=76	=76	=76	=76	=76	=76
V7b	Bb7/D	2.r	2.r	2.r	16ee-
.	.	.	.	.	16dd
.	.	.	.	.	16gg
.	.	.	.	.	16ff
.	.	.	.	.	16ee-
.	.	.	.	.	16dd
.	.	.	.	.	16cc
.	.	.	.	.	16b-
.	.	.	.	.	16a
.	.	.	.	.	16b-
.	.	.	.	.	16a-
.	.	.	.	.	16f
=77	=77	=77	=77	=77	=77
I	Eb	2.r	8E-	16G	4e-
.	.	.	.	16e-	.
.	.	.	8F	16A-	.
.	.	.	.	16e-	.
.	.	.	8G	16B-	4r
.	.	.	.	16e-	.
.	.	.	8F	16A-	.
.	.	.	.	16e-	.
.	.	.	8G	16B-	8.ee-
.	.	.	.	16e-	.
.	.	.	8E-	16G	.
.	.	.	.	16e-	16gg
=78	=78	=78	=78	=78	=78
V7b	Bb7/D	2.r	16D	8f	4bb-
.	.	.	16B-	.	.
.	.	.	16E-	8g	.
.	.	.	16B-	.	.
.	.	.	16F	8a-	4bb-
.	.	.	16B-	.	.
.	.	.	16E-	8g	.
.	.	.	16B-	.	.
.	.	.	16F	8a-	4bb-
.	.	.	16B-	.	.
.	.	.	16D	8f	.
.	.	.	16B-	.	.
=79	=79	=79	=79	=79	=79
I	Eb	2.r	8E-	16G	4ee-
.	.	.	.	16e-	.
.	.	.	8F	16A-	.
.	.	.	.	16e-	.
.	.	.	8G	16B-	4r
.	.	.	.	16e-	.
.	.	.	8F	16A-	.
.	.	.	.	16e-	.
.	.	.	8G	16B-	16ee-
.	.	.	.	16e-	16dd
.	.	.	8E-	16G	16ee-
.	.	.	.	16e-	16gg
=80	=80	=80	=80	=80	=80
V7b	Bb7/D	2.r	16D	8f	8bb-
.	.	.	16B-	.	.
.	.	.	16E-	8g	8bb-
.	.	.	16B-	.	.
.	.	.	16F	8a-	8bb-
.	.	.	16B-	.	.
.	.	.	16E-	8g	8bb-
.	.	.	16B-	.	.
.	.	.	16F	8a-	8bb-
.	.	.	16B-	.	.
.	.	.	16D	8f	8bb-
.	.	.	16B-	.	.
=81	=81	=81	=81	=81	=81
I	Eb	8EE-	16G	4e-	4ee-
.	.	.	16e-	.	.
.	.	8FF	16A-	.	.
.	.	.	16e-	.	.
.	.	8GG	16B-	2r	4r
.	.	.	16e-	.	.
.	.	8FF	16A-	.	.
.	.	.	16e-	.	.
.	.	8GG	16B-	.	8.ee-
.	.	.	16e-	.	.
.	.	8EE-	16G	.	.
.	.	.	16e-	.	16gg
=82	=82	=82	=82	=82	=82
V/ii	C7	16CC	8E	4g	4ccc
.	.	16C	.	.	.
.	.	16DD	8F	.	.
.	.	16C	.	.	.
.	.	16EE	8G	2bb-	4ccc
.	.	16C	.	.	.
.	.	16DD	8F	.	.
.	.	16C	.	.	.
.	.	16EE	8G	.	4ccc
.	.	16C	.	.	.
.	.	16CC	8E	.	.
.	.	16C	.	.	.
=83	=83	=83	=83	=83	=83
ii7	Fm7	8FF	16A-	8.aa-	4fff
.	.	.	16f	.	.
.	.	8GG	16B-	.	.
.	.	.	16f	16gg	.
.	.	8AA-	16c	8.ff	4r
.	.	.	16f	.	.
.	.	8GG	16B-	.	.
.	.	.	16f	16ee-	.
.	.	8AA-	16c	8.dd	8.ff
.	.	.	16f	.	.
.	.	8FF	16A-	.	.
.	.	.	16f	16cc	32gg
.	.	.	.	.	32aa-
=84	=84	=84	=84	=84	=84
V7	Bb7	16BB-	8d	4b-	8bb-
.	.	16F	.	.	.
.	.	16C	8e-	.	8bb-
.	.	16F	.	.	.
.	.	16D	8f	2aa-	8bb-
.	.	16F	.	.	.
.	.	16C	8e-	.	8bb-
.	.	16F	.	.	.
.	.	16D	8f	.	8bb-
.	.	16F	.	.	.
.	.	16BB-	8d	.	8bb-
.	.	16F	.	.	.
=85	=85	=85	=85	=85	=85
I	Eb	8E-	16G	8gg	4eee-
.	.	.	16e-	.	.
.	.	8F	16A-	8ff	.
.	.	.	16e-	.	.
.	.	8G	16B-	8ee-	2r
.	.	.	16e-	.	.
.	.	8F	16A-	8dd	.
.	.	.	16e-	.	.
.	.	8G	16B-	8ee-	.
.	.	.	16e-	.	.
.	.	8E-	16G	8r	.
.	.	.	16e-	.	.
=86	=86	=86	=86	=86	=86
ii7b	Fm7/Ab	8A-	8c	16f	2r
.	.	.	.	16ff	.
.	.	8B-	8d	16g	.
.	.	.	.	16ff	.
.	.	8c	8e-	16a-	.
.	.	.	.	16ff	.
.	.	8B-	8d	16g	.
.	.	.	.	16ff	.
.	.	8c	8e-	16a-	8.ff
.	.	.	.	16ff	.
.	.	8B-	8d	16g	.
.	.	.	.	16ff	16gg
=87	=87	=87	=87	=87	=87
ii7b	Fm7/Ab	8A-	8c	16f	8aa-
.	.	.	.	16ff	.
.	.	8B-	8d	16g	8r
.	.	.	.	16ff	.
.	.	8c	8e-	16a-	8f
.	.	.	.	16ff	.
.	.	8B-	8d	16g	8r
.	.	.	.	16ff	.
.	.	8c	8e-	16a-	8.aa-
.	.	.	.	16ff	.
.	.	8B-	8d	16g	.
.	.	.	.	16ff	16bb-
=88	=88	=88	=88	=88	=88
ii7b	Fm7/Ab	8A-	8c	16f	8ccc
.	.	.	.	16ff	.
.	.	8B-	8d	16g	8r
.	.	.	.	16ff	.
.	.	8c	8e-	16a-	8f
.	.	.	.	16ff	.
.	.	8B-	8d	16g	8r
.	.	.	.	16ff	.
.	.	8c	8e-	16a-	8.ccc
.	.	.	.	16ff	.
.	.	8B-	8d	16g	.
.	.	.	.	16ff	16ddd
=89	=89	=89	=89	=89	=89
ii7b	Fm7/Ab	8A-	8c	16f	8eee-
.	.	.	.	16ff	.
.	.	8B-	8d	16g	4eee-
.	.	.	.	16ff	.
.	.	8c	8e-	16a-	.
.	.	.	.	16ff	.
.	.	8B-	8d	16g	4eee-
.	.	.	.	16ff	.
.	.	8c	8e-	16a-	.
.	.	.	.	16ff	.
.	.	8A-	8c	16f	8eee-
.	.	.	.	16ff	.
=90	=90	=90	=90	=90	=90
V7m9b/V	F7b9/A	2.A	8cc	8ee-	16gg-
.	.	.	.	.	16eee-
.	.	.	4cc	4ee-	16ff
.	.	.	.	.	16eee-
.	.	.	.	.	16gg-
.	.	.	.	.	16eee-
.	.	.	4cc	4ee-	16ff
.	.	.	.	.	16eee-
.	.	.	.	.	16gg-
.	.	.	.	.	16eee-
.	.	.	8g-	[8cc	16ee-
.	.	.	.	.	16eee-
=91	=91	=91	=91	=91	=91
Ic	Eb/Bb	2.B-	4f	8cc]	16ff
.	.	.	.	.	16eee-
.	.	.	.	8b-	16ff
.	.	.	.	.	16ddd
.	.	.	2r	8cc	16ff
.	.	.	.	.	16eee-
.	.	.	.	8a	16ff
.	.	.	.	.	16ccc
.	.	.	.	[4b-	16ff
.	.	.	.	.	16ddd
.	.	.	.	.	16dd
.	.	.	.	.	16ddd
=92	=92	=92	=92	=92	=92
V7	Bb7	[2.BB-	2.r	8b-]	16ee-
.	.	.	.	.	16ddd
.	.	.	.	8a-	16ee-
.	.	.	.	.	16ccc
.	.	.	.	8b-	16ee-
.	.	.	.	.	16ddd
.	.	.	.	8g	16ee-
.	.	.	.	.	16bb-
.	.	.	.	[4a-	16ee-
.	.	.	.	.	16ccc
.	.	.	.	.	16cc
.	.	.	.	.	16ccc
=93	=93	=93	=93	=93	=93
V7	Bb7	2.BB-_	[2.b-	8a-]	16dd
.	.	.	.	.	16ccc
.	.	.	.	8g	16dd
.	.	.	.	.	16bb-
.	.	.	.	8a-	16dd
.	.	.	.	.	16ccc
.	.	.	.	8f#	16dd
.	.	.	.	.	16aa
.	.	.	.	[4g	16dd
.	.	.	.	.	16bb-
.	.	.	.	.	16b-
.	.	.	.	.	16bb-
=94	=94	=94	=94	=94	=94
V7	Bb7	2.BB-_	2b-]	8g]	16cc
.	.	.	.	.	16bb-
.	.	.	.	8f	16cc
.	.	.	.	.	16aa-
.	.	.	.	8g	16cc
.	.	.	.	.	16bb-
.	.	.	.	8e	16cc
.	.	.	.	.	16gg
.	.	.	8a-	8f	16cc
.	.	.	.	.	16aa-
.	.	.	8g-	8e-	16cc-
.	.	.	.	.	16aa-
=95	=95	=95	=95	=95	=95
V7	Bb7	2.BB-_	4f	4d	16d
.	.	.	.	.	16b-
.	.	.	.	.	16aa-
.	.	.	.	.	16b-
.	.	.	8.dd	8.ff	16aa-
.	.	.	.	.	16b-
.	.	.	.	.	16aa-
.	.	.	32cc	32ee-	16b-
.	.	.	32dd	32ff	.
.	.	.	4ee-	4gg	16e-
.	.	.	.	.	16b-
.	.	.	.	.	16gg
.	.	.	.	.	16b-
=96	=96	=96	=96	=96	=96
V7	Bb7	2.BB-_	4B-	4B-	16c
.	.	.	.	.	16a-
.	.	.	.	.	16gg
.	.	.	.	.	16a-
.	.	.	8.cc	8.ee-	16gg
.	.	.	.	.	16a-
.	.	.	.	.	16gg
.	.	.	32b-	32dd	16a-
.	.	.	32cc	32ee-	.
.	.	.	4dd	4ff	16d
.	.	.	.	.	16a-
.	.	.	.	.	16ff
.	.	.	.	.	16a-
=97	=97	=97	=97	=97	=97
V7	Bb7	2.BB-_	4B-	8r	16B-
.	.	.	.	.	16g
.	.	.	.	8b-	16ff
.	.	.	.	.	16g
.	.	.	8r	8cc	16ff
.	.	.	.	.	16g
.	.	.	8g	8dd	16ff
.	.	.	.	.	16g
.	.	.	8f	[4ee-	16B-
.	.	.	.	.	16g
Ic	Eb/Bb	.	8e-	.	16ee-
.	.	.	.	.	16g
=98	=98	=98	=98	=98	=98
Ic	Eb/Bb	2BB-_	8f	8ee-]	16A-
.	.	.	.	.	16f
.	.	.	8B-	8ee-	16ee-
.	.	.	.	.	16f
.	.	.	8r	8dd	16ee-
.	.	.	.	.	16f
.	.	.	8f	8cc	16ee-
.	.	.	.	.	16f
.	.	8BB-]	8b-	8.dd	16A-
.	.	.	.	.	16f
viio7/vi	Bdim7	8BB]	8a-	.	16dd
.	.	.	.	32cc	16f
.	.	.	.	32dd	.
=99	=99	=99	=99	=99	=99
vi	Cm	4C	4g	4ee-	4ee- 4e- 4G
.	.	2r	2r	16r	2r
.	.	.	.	16g	.
.	.	.	.	16f	.
.	.	.	.	16e-	.
.	.	.	.	16d	.
.	.	.	.	16f	.
.	.	.	.	16e-	.
.	.	.	.	16c	.
=100	=100	=100	=100	=100	=100
Vb	Bb/D	4D	4F	8.B-	2.r
.	.	.	.	16c	.
vib	Cm7/Eb	4E-	4G	8.B-	.
.	.	.	.	16c	.
Vb	Bb7/D	8.F	4A-	8.B-	.
.	.	16D	.	16c	.
=101	=101	=101	=101	=101	=101
I	Eb	4E-	4G	4B-	8e-
.	.	.	.	.	16f
.	.	.	.	.	16g
.	.	2r	2r	2r	16a-
.	.	.	.	.	16b-
.	.	.	.	.	16cc
.	.	.	.	.	16dd
.	.	.	.	.	16ee-
.	.	.	.	.	16ff
.	.	.	.	.	16gg
.	.	.	.	.	16aa-
=102	=102	=102	=102	=102	=102
Vb	Bb	2r	8b-	8dd	8bb-
.	.	.	8b-	8dd	8bb-
viio7/V	Adim7	.	8a	8ee-	8ccc
.	.	.	8a	8ee-	8ccc
Vb	Bb7	4B-	8a-	8ff	8ddd
.	.	.	8a-	8ff	8ddd
=103	=103	=103	=103	=103	=103
I	Eb	8E-	4g	4ee-	4eee-
.	.	8r	.	.	.
.	.	8e-	2r	2r	2r
.	.	4.r	.	.	.
==	==	==	==	==	==
*-	*-	*-	*-	*-	*-
!!!RWG1: This file contains only pitch and duration data.
!!!RWG2: Transposing instruments are not transposed.
!!!RWG3: Spines may have incompatible meters.
!!!RWG4: Durations of rests and tied notes may be interpreted.
!!!RWG: Key is interpreted using the Humdrum key tool.
!!!AFT: stage1
!!!END: 1997/04/15
!!!KEY: 2418098331
!!!EMD: Converted from MuseData to Humdrum Dec 16, 2000, by Andreas Kornstaedt using muse2kern.
!!!EMD: Manual editing by Craig Sapp, Nov 2001